src/assets/images/location.svg

<svg width="18" height="24" viewBox="0 0 18 24" fill="none" xmlns="http://www.w3.org/2000/svg">
<path d="M9 1C4.58871 1 1 4.58871 1 9C1 10.4522 1.65129 12.0141 1.67859 12.08C1.88894 12.5793 2.304 13.3548 2.60329 13.8094L8.08847 22.1205C8.31294 22.4612 8.64518 22.6565 9 22.6565C9.35482 22.6565 9.68706 22.4612 9.91153 22.1209L15.3972 13.8094C15.6969 13.3548 16.1115 12.5793 16.3219 12.08C16.3492 12.0146 17 10.4527 17 9C17 4.58871 13.4113 1 9 1ZM15.4541 11.7148C15.2664 12.1624 14.88 12.8838 14.6113 13.2913L9.12565 21.6028C9.01741 21.7671 8.98306 21.7671 8.87482 21.6028L3.38918 13.2913C3.12047 12.8838 2.73412 12.1619 2.54635 11.7144C2.53835 11.6951 1.94118 10.2574 1.94118 9C1.94118 5.10777 5.10776 1.94118 9 1.94118C12.8922 1.94118 16.0588 5.10777 16.0588 9C16.0588 10.2593 15.4602 11.7007 15.4541 11.7148Z" fill="#F8BE22" stroke="#F8BE22"/>
<path d="M9.00003 4.76514C6.66451 4.76514 4.76474 6.66537 4.76474 9.00043C4.76474 11.3355 6.66451 13.2357 9.00003 13.2357C11.3356 13.2357 13.2353 11.3355 13.2353 9.00043C13.2353 6.66537 11.3356 4.76514 9.00003 4.76514ZM9.00003 12.2946C7.18403 12.2946 5.70592 10.8169 5.70592 9.00043C5.70592 7.18396 7.18403 5.70631 9.00003 5.70631C10.816 5.70631 12.2942 7.18396 12.2942 9.00043C12.2942 10.8169 10.816 12.2946 9.00003 12.2946Z" fill="#F8BE22" stroke="#F8BE22"/>
</svg>

<svg width="18" height="24" fill="none" xmlns="http://www.w3.org/2000/svg"><path d="M9 1C4.589 1 1 4.589 1 9c0 1.452.651 3.014.679 3.08.21.5.625 1.275.924 1.73l5.485 8.31c.225.341.557.537.912.537s.687-.196.912-.536l5.485-8.312c.3-.454.714-1.23.925-1.729.027-.065.678-1.627.678-3.08 0-4.411-3.589-8-8-8zm6.454 10.715a11.808 11.808 0 0 1-.843 1.576l-5.485 8.312c-.109.164-.143.164-.251 0L3.389 13.29a11.826 11.826 0 0 1-.843-1.577c-.008-.019-.605-1.457-.605-2.714A7.067 7.067 0 0 1 9 1.941 7.067 7.067 0 0 1 16.059 9c0 1.26-.599 2.7-.605 2.715z" fill="#F8BE22" stroke="#F8BE22"/><path d="M9 4.765A4.24 4.24 0 0 0 4.765 9 4.24 4.24 0 0 0 9 13.236 4.24 4.24 0 0 0 13.235 9 4.24 4.24 0 0 0 9 4.765zm0 7.53A3.298 3.298 0 0 1 5.706 9 3.298 3.298 0 0 1 9 5.706 3.298 3.298 0 0 1 12.294 9 3.298 3.298 0 0 1 9 12.295z" fill="#F8BE22" stroke="#F8BE22"/></svg>
